X: 5
T: The Rights Of Man
R: hornpipe
M: 4/4
L: 1/8
K: Gmaj
GA|:"Em"(3BcB AB GAFG|"Am"EFGA "Em"B2 ef |"Am"gfed "D"Bgfg|1"Em"e2 E2 E2 GA:|2"Em"e2 E2 E2 ga|!|:"Em"bagf efga|"Em"bged efga|"Am"edBA "D"Ggfg|1"Em"e2 E2 E2 ga:|2"Em"e2 E2 E4|


Tune 83	Setting 27581

